public/assets/images/step5.svg

<svg width="118" height="100" viewBox="0 0 118 100" fill="none" xmlns="http://www.w3.org/2000/svg">
<circle cx="67.5" cy="50" r="46.5" stroke="#E6364F" stroke-width="7"/>
<path d="M18.8333 43V55.5L2 50L18.8333 43Z" fill="#E6364F" stroke="#E6364F"/>
<path d="M65.85 70.5C63.6833 70.5 61.8 70.1667 60.2 69.5C58.6333 68.8333 57.3167 67.9333 56.25 66.8C55.1833 65.7 54.35 64.4833 53.75 63.15L56.35 61.25C56.8167 62.2167 57.4333 63.1833 58.2 64.15C58.9667 65.1167 59.9333 65.9 61.1 66.5C62.2667 67.1333 63.6833 67.45 65.35 67.45C66.85 67.45 68.15 67.1 69.25 66.4C70.35 65.7 71.1833 64.6833 71.75 63.35C72.35 62.0167 72.65 60.4333 72.65 58.6C72.65 56.9 72.3667 55.4667 71.8 54.3C71.2667 53.1333 70.5167 52.25 69.55 51.65C68.6167 51.0167 67.5167 50.7 66.25 50.7C65.25 50.7 64.3333 50.85 63.5 51.15C62.6667 51.4167 61.9 51.8333 61.2 52.4C60.5333 52.9333 59.9167 53.6 59.35 54.4H56.6V35.55H76.45L75.4 40.25H58.7L59.8 36.55V52.2C59.7667 52.4333 59.65 52.6 59.45 52.7C59.2833 52.8 59.1167 52.8167 58.95 52.75C58.8167 52.6833 58.7167 52.5167 58.65 52.25C59.25 51.3167 59.9833 50.5167 60.85 49.85C61.75 49.15 62.7667 48.6167 63.9 48.25C65.0333 47.8833 66.2833 47.7 67.65 47.7C69.9167 47.7 71.8667 48.2 73.5 49.2C75.1667 50.2 76.4333 51.5333 77.3 53.2C78.2 54.8333 78.65 56.6333 78.65 58.6C78.65 60.9667 78.1167 63.05 77.05 64.85C75.9833 66.6167 74.4833 68 72.55 69C70.65 70 68.4167 70.5 65.85 70.5Z" fill="#E6364F"/>
</svg>

<svg xmlns="http://www.w3.org/2000/svg" width="118" height="100" fill="none"><circle cx="67.5" cy="50" r="46.5" stroke="#E6364F" stroke-width="7"/><path fill="#E6364F" stroke="#E6364F" d="M18.833 43v12.5L2 50z"/><path fill="#E6364F" d="M65.85 70.5q-3.25 0-5.65-1-2.35-1-3.95-2.7a12.7 12.7 0 0 1-2.5-3.65l2.6-1.9q.7 1.45 1.85 2.9t2.9 2.35q1.75.95 4.25.95 2.25 0 3.9-1.05t2.5-3.05q.9-2 .9-4.75 0-2.55-.85-4.3-.8-1.75-2.25-2.65-1.4-.95-3.3-.95-1.5 0-2.75.45-1.25.4-2.3 1.25-1 .8-1.85 2H56.6V35.55h19.85l-1.05 4.7H58.7l1.1-3.7V52.2a.62.62 0 0 1-.35.5.54.54 0 0 1-.5.05q-.2-.1-.3-.5a9.5 9.5 0 0 1 2.2-2.4q1.35-1.05 3.05-1.6t3.75-.55q3.4 0 5.85 1.5 2.5 1.5 3.8 4 1.35 2.45 1.35 5.4 0 3.55-1.6 6.25-1.6 2.65-4.5 4.15-2.85 1.5-6.7 1.5"/></svg>
